assets/images/afrikons/round-loop-outline.svg

<svg viewBox="0 0 50 50" xmlns="http://www.w3.org/2000/svg"><g fill="none"><path d="m0 0h50v50h-50z"/><path d="m6.09 29.62a1.21 1.21 0 0 0 1-.77 1.23 1.23 0 0 0 -.2-1.21l-2.14-2.56a1.18 1.18 0 0 0 -.94-.45 1.22 1.22 0 0 0 -1.15.8l-1.17 3.08a1.23 1.23 0 0 0 .14 1.13 1.21 1.21 0 0 0 1.1.51.41.41 0 0 0 .11 0l2-.44v.11z"/><path d="m46.19 25.37a1.21 1.21 0 0 0 1.15-.8l1.17-3.08a1.23 1.23 0 0 0 -.14-1.13 1.21 1.21 0 0 0 -1.21-.51l-2 .44v-.11l-1.24.2a1.21 1.21 0 0 0 -.95.77 1.23 1.23 0 0 0 .2 1.21l2.09 2.56a1.18 1.18 0 0 0 .93.45z"/></g><path d="m49.53 19.56a2.62 2.62 0 0 0 -2.59-1.1l-.77.12a22.2 22.2 0 0 0 -21.17-15.71 22 22 0 0 0 -12.39 3.78l-.41.27.8 1.17.41-.27a20.55 20.55 0 0 1 11.59-3.54 20.81 20.81 0 0 1 19.77 14.53l-1.09.19a2.63 2.63 0 0 0 -1.61 4.26l2.09 2.56a2.64 2.64 0 0 0 4.5-.74l1.17-3.08a2.6 2.6 0 0 0 -.3-2.44zm-6.53 1.59a1.21 1.21 0 0 1 .95-.77l1.24-.2v.11l2-.44a1.21 1.21 0 0 1 1.21.51 1.23 1.23 0 0 1 .14 1.13l-1.17 3.08a1.21 1.21 0 0 1 -1.15.8 1.18 1.18 0 0 1 -.94-.45l-2.09-2.56a1.23 1.23 0 0 1 -.19-1.21z"/><path d="m36.6 42.18a20.55 20.55 0 0 1 -11.6 3.54 20.81 20.81 0 0 1 -19.77-14.53l1.09-.19a2.63 2.63 0 0 0 1.61-4.26l-2.08-2.55a2.65 2.65 0 0 0 -2-1 2.61 2.61 0 0 0 -2.47 1.7l-1.2 3.11a2.57 2.57 0 0 0 .29 2.43 2.62 2.62 0 0 0 2.59 1.1l.77-.12a22.2 22.2 0 0 0 21.17 15.72 22 22 0 0 0 12.37-3.78l.41-.27-.78-1.17zm-33.76-12a.41.41 0 0 1 -.11 0 1.21 1.21 0 0 1 -1.1-.51 1.23 1.23 0 0 1 -.14-1.13l1.17-3.08a1.22 1.22 0 0 1 1.15-.8 1.18 1.18 0 0 1 .94.45l2.09 2.56a1.23 1.23 0 0 1 .16 1.18 1.21 1.21 0 0 1 -1 .77l-1.23.2v-.11z"/></svg>

<svg xmlns="http://www.w3.org/2000/svg" viewBox="0 0 50 50"><defs><style>.cls-1{fill:none;}</style></defs><title>round-loop-outline</title><g id="Layer_2" data-name="Layer 2"><g id="Layer_1-2" data-name="Layer 1"><rect class="cls-1" width="50" height="50"/><path class="cls-1" d="M6.09,29.62a1.21,1.21,0,0,0,1-.77,1.23,1.23,0,0,0-.2-1.21L4.75,25.08a1.18,1.18,0,0,0-.94-.45,1.22,1.22,0,0,0-1.15.8L1.49,28.51a1.23,1.23,0,0,0,.14,1.13,1.21,1.21,0,0,0,1.1.51.41.41,0,0,0,.11,0l2-.44,0,.11Z"/><path class="cls-1" d="M46.19,25.37a1.21,1.21,0,0,0,1.15-.8l1.17-3.08a1.23,1.23,0,0,0-.14-1.13,1.21,1.21,0,0,0-1.21-.51l-2,.44,0-.11-1.24.2a1.21,1.21,0,0,0-.95.77,1.23,1.23,0,0,0,.2,1.21l2.09,2.56A1.18,1.18,0,0,0,46.19,25.37Z"/><path d="M49.53,19.56a2.62,2.62,0,0,0-2.59-1.1l-.77.12A22.2,22.2,0,0,0,25,2.87,22,22,0,0,0,12.61,6.65l-.41.27L13,8.09l.41-.27A20.55,20.55,0,0,1,25,4.28,20.81,20.81,0,0,1,44.77,18.81L43.68,19a2.63,2.63,0,0,0-1.61,4.26l2.09,2.56a2.64,2.64,0,0,0,4.5-.74L49.83,22A2.6,2.6,0,0,0,49.53,19.56ZM43,21.15a1.21,1.21,0,0,1,.95-.77l1.24-.2,0,.11,2-.44a1.21,1.21,0,0,1,1.21.51,1.23,1.23,0,0,1,.14,1.13l-1.17,3.08a1.21,1.21,0,0,1-1.15.8,1.18,1.18,0,0,1-.94-.45l-2.09-2.56A1.23,1.23,0,0,1,43,21.15Z"/><path d="M36.6,42.18A20.55,20.55,0,0,1,25,45.72,20.81,20.81,0,0,1,5.23,31.19L6.32,31a2.63,2.63,0,0,0,1.61-4.26L5.85,24.19a2.65,2.65,0,0,0-2-1,2.61,2.61,0,0,0-2.47,1.7L.18,28a2.57,2.57,0,0,0,.29,2.43,2.62,2.62,0,0,0,2.59,1.1l.77-.12A22.2,22.2,0,0,0,25,47.13a22,22,0,0,0,12.37-3.78l.41-.27L37,41.91Zm-33.76-12a.41.41,0,0,1-.11,0,1.21,1.21,0,0,1-1.1-.51,1.23,1.23,0,0,1-.14-1.13l1.17-3.08a1.22,1.22,0,0,1,1.15-.8,1.18,1.18,0,0,1,.94.45l2.09,2.56A1.23,1.23,0,0,1,7,28.85a1.21,1.21,0,0,1-1,.77l-1.23.2,0-.11Z"/></g></g></svg>
